X: 34506
T: Rights Of Man, The
R: hornpipe
M: 4/4
K: Gmajor
GA|:"Em"(3BcB AB GAFG|"Am"EFGA "Em"B2 ef|"C"gfed "G"edBd|"Am"cBAG "D"A2 GA|
"Em"(3BcB (3 ABA (3 GAG (3FGF|"Am"EFGA "Em"B2 ef|"Am"gfed "D"Bgfg|1 "Em"e2 E2 E2 GA:|2 "Em"e2 E2 E2 ga||
|:"Em"bagf efga|"Em"bged efga|"D"(3fgf ef defg|"D"afdf a2 gf|
"Em"(3ede ef (3gfg a2|"G"(3bc’b (3aba "C"(3gag (3fgf|"Am"edBA "D"Ggfg|1 "Em"e2 E2 E2 ga:|2 "Em"e2 E2 E4||

